austria/municipalities/70902.svg

<?xml version="1.0" encoding="UTF-8"?>
<!DOCTYPE svg PUBLIC "-//W3C//DTD SVG 1.1//EN" "http://www.w3.org/Graphics/SVG/1.1/DTD/svg11.dtd">
<svg xmlns="http://www.w3.org/2000/svg" version="1.1" width="166px" height="192px" style="shape-rendering:geometricPrecision; text-rendering:geometricPrecision; image-rendering:optimizeQuality; fill-rule:evenodd; clip-rule:evenodd" xmlns:xlink="http://www.w3.org/1999/xlink">
<g><path style="opacity:1" fill="#060609" d="M -0.5,-0.5 C 54.8333,-0.5 110.167,-0.5 165.5,-0.5C 165.5,39.5 165.5,79.5 165.5,119.5C 157.038,159.629 132.705,183.629 92.5,191.5C 85.5,191.5 78.5,191.5 71.5,191.5C 30.9271,182.927 6.9271,158.261 -0.5,117.5C -0.5,78.1667 -0.5,38.8333 -0.5,-0.5 Z"/></g>
<g><path style="opacity:1" fill="#253167" d="M 3.5,3.5 C 56.1667,3.5 108.833,3.5 161.5,3.5C 161.667,41.8348 161.5,80.1681 161,118.5C 152.719,161.74 126.552,184.74 82.5,187.5C 47.8188,186.255 23.3188,169.921 9,138.5C 6.44097,131.372 4.7743,124.038 4,116.5C 3.50001,78.8348 3.33335,41.1681 3.5,3.5 Z"/></g>
<g><path style="opacity:1" fill="#fdfdfd" d="M -0.5,117.5 C 6.9271,158.261 30.9271,182.927 71.5,191.5C 47.5,191.5 23.5,191.5 -0.5,191.5C -0.5,166.833 -0.5,142.167 -0.5,117.5 Z"/></g>
<g><path style="opacity:1" fill="#fdfdfd" d="M 165.5,119.5 C 165.5,143.5 165.5,167.5 165.5,191.5C 141.167,191.5 116.833,191.5 92.5,191.5C 132.705,183.629 157.038,159.629 165.5,119.5 Z"/></g>
<g><path style="opacity:1" fill="#0f0d0c" d="M 48.5,23.5 C 56.0841,23.0146 62.5841,25.3479 68,30.5C 69.434,34.4065 69.7673,38.4065 69,42.5C 64.117,53.1487 61.2836,64.3153 60.5,76C 60.7403,80.9418 61.5736,85.7751 63,90.5C 64.0759,94.1057 66.2426,95.1057 69.5,93.5C 70.3326,81.1801 70.8326,68.8468 71,56.5C 71.3459,54.1523 72.5125,52.3189 74.5,51C 96.0779,49.3559 117.745,49.0226 139.5,50C 145.552,54.2228 145.885,58.8895 140.5,64C 138.5,64.6667 136.5,65.3333 134.5,66C 141.167,70.3333 141.167,74.6667 134.5,79C 122.167,79.6667 109.833,79.6667 97.5,79C 92.4285,74.97 90.2618,76.1367 91,82.5C 93.2921,83.9078 95.4588,83.7411 97.5,82C 108.833,81.3333 120.167,81.3333 131.5,82C 133.121,84.166 133.955,86.666 134,89.5C 136.09,88.2092 137.424,88.8758 138,91.5C 135.655,118.675 121.489,136.508 95.5,145C 74.6146,148.405 56.448,142.905 41,128.5C 34.7692,120.581 32.1026,111.581 33,101.5C 36.1094,92.6125 39.7761,83.9459 44,75.5C 46.6564,68.5975 47.3231,61.5975 46,54.5C 45.1667,53.6667 44.3333,52.8333 43.5,52C 37.8333,51.6667 32.1667,51.3333 26.5,51C 23.2246,50.5392 20.8913,48.8725 19.5,46C 19.6448,45.228 19.9781,44.5613 20.5,44C 31.3655,46.1523 37.5322,41.6523 39,30.5C 41.529,27.1151 44.6956,24.7818 48.5,23.5 Z"/></g>
<g><path style="opacity:1" fill="#243064" d="M 92.5,89.5 C 94.6807,89.2837 96.3474,90.117 97.5,92C 109.245,92.6215 120.912,92.6215 132.5,92C 120.975,93.1479 109.309,93.9812 97.5,94.5C 95.9563,96.4461 93.9563,96.9461 91.5,96C 90.1443,93.5859 90.4776,91.4193 92.5,89.5 Z"/></g>
<g><path style="opacity:1" fill="#243064" d="M 91.5,62.5 C 100.421,62.9304 101.254,65.2638 94,69.5C 90.5677,68.1072 89.7344,65.7738 91.5,62.5 Z"/></g>
<g><path style="opacity:1" fill="#e5a41c" d="M 50.5,25.5 C 62.7471,24.9103 68.2471,30.577 67,42.5C 59.9985,56.8379 57.6652,71.8379 60,87.5C 60.7648,90.1959 61.9315,92.6959 63.5,95C 66.4294,95.7772 69.2628,95.6105 72,94.5C 72.3333,81.8333 72.6667,69.1667 73,56.5C 73.3095,55.2341 73.8095,54.0674 74.5,53C 95.7444,51.3563 117.078,51.023 138.5,52C 142.584,54.2573 143.417,57.424 141,61.5C 139.933,62.1905 138.766,62.6905 137.5,63C 124.487,63.8327 111.487,63.666 98.5,62.5C 97.4729,60.976 95.9729,60.3094 94,60.5C 89.3549,61.0991 87.6882,63.7658 89,68.5C 92.26,72.4378 95.4267,72.4378 98.5,68.5C 110.152,67.3341 121.819,67.1675 133.5,68C 138.81,71.0673 138.81,74.0673 133.5,77C 121.833,77.6667 110.167,77.6667 98.5,77C 95.182,73.5936 92.0154,73.7603 89,77.5C 88.1667,83.3333 90.6667,85.8333 96.5,85C 97.1667,84.3333 97.8333,83.6667 98.5,83C 108.5,82.3333 118.5,82.3333 128.5,83C 131.553,84.5808 132.22,86.9141 130.5,90C 119.833,90.6667 109.167,90.6667 98.5,90C 93.7014,86.0933 90.3681,87.0933 88.5,93C 88.4841,95.3052 89.4841,96.9718 91.5,98C 104.58,95.9623 117.914,94.9623 131.5,95C 133.303,94.3632 134.636,93.1965 135.5,91.5C 134.691,112.598 125.024,128.431 106.5,139C 81.7074,148.841 59.8741,144.341 41,125.5C 34.9903,115.755 33.6569,105.422 37,94.5C 40.7286,87.3004 44.0619,79.9671 47,72.5C 48.4712,66.5692 48.8045,60.5692 48,54.5C 47.065,51.8981 45.2317,50.3981 42.5,50C 37.1667,49.6667 31.8333,49.3333 26.5,49C 24.5789,48.6397 22.9122,47.8064 21.5,46.5C 25.9072,45.8754 30.2406,45.042 34.5,44C 35.3333,43.1667 36.1667,42.3333 37,41.5C 38.1087,37.2807 39.7754,33.2807 42,29.5C 44.5638,27.3757 47.3971,26.0424 50.5,25.5 Z"/></g>
<g><path style="opacity:1" fill="#16110a" d="M 52.5,34.5 C 59.1451,35.6236 60.8118,39.1236 57.5,45C 50.5098,47.0051 47.6764,44.5051 49,37.5C 50.1451,36.3636 51.3117,35.3636 52.5,34.5 Z"/></g>
<g><path style="opacity:1" fill="#222f61" d="M 52.5,36.5 C 55.3523,36.3524 57.019,37.6857 57.5,40.5C 55.1667,45.8333 52.8333,45.8333 50.5,40.5C 50.7517,38.9271 51.4183,37.5938 52.5,36.5 Z"/></g>
</svg>

<svg xmlns="http://www.w3.org/2000/svg" width="166" height="192" style="shape-rendering:geometricPrecision;text-rendering:geometricPrecision;image-rendering:optimizeQuality;fill-rule:evenodd;clip-rule:evenodd"><path style="opacity:1" fill="#060609" d="M-.5-.5h166v120c-8.462 40.129-32.795 64.129-73 72h-21c-40.573-8.573-64.573-33.239-72-74V-.5z"/><path style="opacity:1" fill="#253167" d="M3.5 3.5h158c.167 38.335 0 76.668-.5 115-8.281 43.24-34.448 66.24-78.5 69-34.681-1.245-59.181-17.579-73.5-49a92.996 92.996 0 0 1-5-22c-.5-37.665-.667-75.332-.5-113z"/><path style="opacity:1" fill="#fdfdfd" d="M-.5 117.5c7.427 40.761 31.427 65.427 72 74h-72v-74zM165.5 119.5v72h-73c40.205-7.871 64.538-31.871 73-72z"/><path style="opacity:1" fill="#0f0d0c" d="M48.5 23.5c7.584-.485 14.084 1.848 19.5 7 1.434 3.907 1.767 7.907 1 12-4.883 10.649-7.716 21.815-8.5 33.5A60.08 60.08 0 0 0 63 90.5c1.076 3.606 3.243 4.606 6.5 3a686.7 686.7 0 0 0 1.5-37c.346-2.348 1.513-4.181 3.5-5.5a537.348 537.348 0 0 1 65-1c6.052 4.223 6.385 8.89 1 14l-6 2c6.667 4.333 6.667 8.667 0 13a342.483 342.483 0 0 1-37 0c-5.072-4.03-7.238-2.863-6.5 3.5 2.292 1.408 4.459 1.241 6.5-.5a289.236 289.236 0 0 1 34 0c1.621 2.166 2.455 4.666 2.5 7.5 2.09-1.29 3.424-.624 4 2-2.345 27.175-16.511 45.008-42.5 53.5-20.885 3.405-39.052-2.095-54.5-16.5-6.23-7.919-8.897-16.919-8-27a221.894 221.894 0 0 1 11-26c2.656-6.903 3.323-13.903 2-21L43.5 52l-17-1c-3.275-.46-5.609-2.127-7-5a3.943 3.943 0 0 1 1-2c10.866 2.152 17.032-2.348 18.5-13.5 2.529-3.385 5.696-5.718 9.5-7z"/><path style="opacity:1" fill="#243064" d="M92.5 89.5c2.18-.216 3.847.617 5 2.5 11.745.621 23.412.621 35 0a633.723 633.723 0 0 1-35 2.5c-1.544 1.946-3.544 2.446-6 1.5-1.356-2.414-1.022-4.58 1-6.5zM91.5 62.5c8.921.43 9.754 2.764 2.5 7-3.432-1.393-4.266-3.726-2.5-7z"/><path style="opacity:1" fill="#e5a41c" d="M50.5 25.5c12.247-.59 17.747 5.077 16.5 17-7.002 14.338-9.335 29.338-7 45a25.709 25.709 0 0 0 3.5 7.5c2.93.777 5.763.61 8.5-.5l1-38c.31-1.266.81-2.433 1.5-3.5a521.11 521.11 0 0 1 64-1c4.084 2.257 4.917 5.424 2.5 9.5a11.357 11.357 0 0 1-3.5 1.5 254.06 254.06 0 0 1-39-.5c-1.027-1.524-2.527-2.19-4.5-2-4.645.6-6.312 3.266-5 8 3.26 3.938 6.427 3.938 9.5 0a204.725 204.725 0 0 1 35-.5c5.31 3.067 5.31 6.067 0 9a306.485 306.485 0 0 1-35 0c-3.318-3.406-6.485-3.24-9.5.5-.833 5.833 1.667 8.333 7.5 7.5l2-2c10-.667 20-.667 30 0 3.053 1.58 3.72 3.914 2 7a256.237 256.237 0 0 1-32 0c-4.799-3.907-8.132-2.907-10 3-.016 2.305.984 3.972 3 5 13.08-2.038 26.414-3.038 40-3 1.803-.637 3.136-1.803 4-3.5-.809 21.098-10.476 36.931-29 47.5-24.793 9.841-46.626 5.341-65.5-13.5-6.01-9.745-7.343-20.078-4-31a234.597 234.597 0 0 0 10-22 47.945 47.945 0 0 0 1-18c-.935-2.602-2.768-4.102-5.5-4.5l-16-1c-1.921-.36-3.588-1.194-5-2.5 4.407-.625 8.74-1.458 13-2.5l2.5-2.5a47.218 47.218 0 0 1 5-12c2.564-2.124 5.397-3.458 8.5-4z"/><path style="opacity:1" fill="#16110a" d="M52.5 34.5c6.645 1.124 8.312 4.624 5 10.5-6.99 2.005-9.824-.495-8.5-7.5a30.139 30.139 0 0 1 3.5-3z"/><path style="opacity:1" fill="#222f61" d="M52.5 36.5c2.852-.148 4.519 1.186 5 4-2.333 5.333-4.667 5.333-7 0 .252-1.573.918-2.906 2-4z"/></svg>
